theme/essential/pix_core/t/download.svg

<svg xmlns="http://www.w3.org/2000/svg" width="12" height="12" viewBox="0 0 12 12" preserveAspectRatio="xMinYMid meet" overflow="visible"><path d="M5.3 12h-5.3v-9.4l2.6-2.6h7.4v3.8l-1-1v-1.8h-5v3h-3v7h4c0 .4.1.7.3 1z" fill="#999"/><path d="M-.057 3.05zm11.8 5l-3.5 3.6c-.4.4-1 .4-1.4 0l-3.5-3.7c-.4-.4-.3-.9.3-.9h2.3v-3c0-.5.5-1 1.1-1h1c.5 0 .9.5.9 1v3h2.5c.5 0 .7.6.3 1z" fill="#999" overflow="visible"/></svg>

<?xml version="1.0" encoding="UTF-8" standalone="no"?>
<!-- Generator: Adobe Illustrator 15.1.0, SVG Export Plug-In  -->

<svg
   xmlns:dc="http://purl.org/dc/elements/1.1/"
   xmlns:cc="http://creativecommons.org/ns#"
   xmlns:rdf="http://www.w3.org/1999/02/22-rdf-syntax-ns#"
   xmlns:svg="http://www.w3.org/2000/svg"
   xmlns="http://www.w3.org/2000/svg"
   xmlns:sodipodi="http://sodipodi.sourceforge.net/DTD/sodipodi-0.dtd"
   xmlns:inkscape="http://www.inkscape.org/namespaces/inkscape"
   version="1.1"
   x="0px"
   y="0px"
   width="12px"
   height="12px"
   viewBox="0 0 12 12"
   style="overflow:visible;enable-background:new 0 0 12 12;"
   xml:space="preserve"
   preserveAspectRatio="xMinYMid meet"
   id="svg2"
   inkscape:version="0.48.3.1 r9886"
   sodipodi:docname="portfolioadd.svg"><metadata
   id="metadata10"><rdf:RDF><cc:Work
       rdf:about=""><dc:format>image/svg+xml</dc:format><dc:type
         rdf:resource="http://purl.org/dc/dcmitype/StillImage" /><dc:title></dc:title></cc:Work></rdf:RDF></metadata><sodipodi:namedview
   pagecolor="#ffffff"
   bordercolor="#666666"
   borderopacity="1"
   objecttolerance="10"
   gridtolerance="10"
   guidetolerance="10"
   inkscape:pageopacity="0"
   inkscape:pageshadow="2"
   inkscape:window-width="932"
   inkscape:window-height="719"
   id="namedview8"
   showgrid="false"
   inkscape:zoom="3.4766083"
   inkscape:cx="-39.823493"
   inkscape:cy="4.7957596"
   inkscape:window-x="922"
   inkscape:window-y="168"
   inkscape:window-maximized="0"
   inkscape:current-layer="svg2" />
<defs
   id="defs4">
</defs>
<path
   style="fill:#29a1c4"
   d="M 5.3,12 0,12 0,2.6 0,2.6 2.6,0 2.6,0 10,0 10,3.8 9,2.8 9,1 4,1 4,4 1,4 l 0,7 4,0 c 0,0.4 0.1,0.7 0.3,1 z"
   id="path6"
   inkscape:connector-curvature="0"
   sodipodi:nodetypes="cccccccccccccccc" />
<path
   style="fill:#29a1c4;overflow:visible"
   d="m -0.05724243,3.0499999 z m 11.80000043,5 L 8.2427575,11.65 c -0.4,0.4 -1,0.4 -1.4,0 l -3.5,-3.7000001 c -0.4,-0.4 -0.3,-0.9 0.3,-0.9 l 2.3,0 0,-3 c 0,-0.5 0.5,-1 1.1,-1 l 1,0 c 0.5,0 0.9,0.5 0.9,1 l 0,3 2.5000005,0 c 0.5,0 0.7,0.6 0.3,1 z"
   id="path6-1"
   inkscape:connector-curvature="0"
   sodipodi:nodetypes="ccccccscsssscsc" /></svg>
